build/service/ShareSolid.svg

<svg xmlns="http://www.w3.org/2000/svg" fill="none" viewBox="0 0 24 24" focusable="false"><path d="M0 0H24V24H0z"/><path fill="#74767B" fill-rule="evenodd" d="M21 5.99913C21 7.6555 19.6569 8.99825 18 8.99825C17.0112 8.99825 16.1341 8.51998 15.5876 7.78222L8.94173 11.4062C8.97995 11.5973 9 11.795 9 11.9974C9 12.2012 8.97967 12.4002 8.94093 12.5926L15.5807 16.2271C16.1267 15.4841 17.007 15.0017 18 15.0017C19.6569 15.0017 21 16.3445 21 18.0009C21 19.6572 19.6569 21 18 21C16.3431 21 15 19.6572 15 18.0009C15 17.8027 15.0192 17.609 15.0559 17.4216L8.41008 13.7837C7.86339 14.5196 6.9874 14.9965 6 14.9965C4.34315 14.9965 3 13.6537 3 11.9974C3 10.341 4.34315 8.99825 6 8.99825C6.98888 8.99825 7.86601 9.47657 8.41252 10.2144L15.0583 6.59044C15.0201 6.39927 15 6.20154 15 5.99913C15 4.34275 16.3431 3 18 3C19.6569 3 21 4.34275 21 5.99913Z"/></svg>

<svg xmlns="http://www.w3.org/2000/svg" fill="none" viewBox="0 0 24 24" focusable="false"><path fill="#74767B" fill-rule="evenodd" d="M21 5.99c0 1.66-1.35 3-3 3-.99 0-1.87-.48-2.42-1.21L8.94 11.4c.03.19.06.39.06.59 0 .21-.03.41-.06.6l6.64 3.63C16.12 15.48 17 15 18 15c1.65 0 3 1.34 3 3 0 1.65-1.35 3-3 3-1.66 0-3-1.35-3-3 0-.2.01-.4.05-.58l-6.64-3.64c-.55.73-1.43 1.21-2.41 1.21-1.66 0-3-1.34-3-3 0-1.65 1.34-3 3-3 .98 0 1.86.48 2.41 1.22l6.64-3.62c-.03-.2-.05-.39-.05-.6C15 4.34 16.34 3 18 3a3 3 0 0 1 3 2.99"/></svg>
